X:1
T: McDougall's March
C:
R:Jig
Q:180
K:D
M:6/8
L:1/16
|:A2B2A2 A2F2A2|d6d6|f2e2d2 d2e2f2|e2f2e2 d2c2A2|
A2B2A2 A2F2A2|d6d4g2|f2e2d2 A2d2c2|d6-d4A2:|
|:f2g2f2 f2e2d2|g6g6|f2g2f2 f2e2d2|e2f2e2 d2c2B2|
A2B2A2 A2F2A2|d6d4g2|f2e2d2 A2d2c2|d6-d4A2:|
